images/6604883.svg

<?xml version="1.0" encoding="UTF-8"?>
<svg xmlns="http://www.w3.org/2000/svg" xmlns:xlink="http://www.w3.org/1999/xlink" width="300pt" height="300pt" viewBox="0 0 300 300" version="1.1">
<defs>
<g>
<symbol overflow="visible" id="glyph0-0">
<path style="stroke:none;" d="M 0.453125 1.59375 L 0.453125 -6.34375 L 4.953125 -6.34375 L 4.953125 1.59375 Z M 0.953125 1.09375 L 4.453125 1.09375 L 4.453125 -5.84375 L 0.953125 -5.84375 Z M 0.953125 1.09375 "/>
</symbol>
<symbol overflow="visible" id="glyph0-1">
<path style="stroke:none;" d="M 3.546875 -5.953125 C 2.898438 -5.953125 2.382812 -5.710938 2 -5.234375 C 1.625 -4.753906 1.4375 -4.101562 1.4375 -3.28125 C 1.4375 -2.445312 1.625 -1.789062 2 -1.3125 C 2.382812 -0.832031 2.898438 -0.59375 3.546875 -0.59375 C 4.191406 -0.59375 4.703125 -0.832031 5.078125 -1.3125 C 5.453125 -1.789062 5.640625 -2.445312 5.640625 -3.28125 C 5.640625 -4.101562 5.453125 -4.753906 5.078125 -5.234375 C 4.703125 -5.710938 4.191406 -5.953125 3.546875 -5.953125 Z M 3.546875 -6.6875 C 4.460938 -6.6875 5.195312 -6.375 5.75 -5.75 C 6.300781 -5.132812 6.578125 -4.3125 6.578125 -3.28125 C 6.578125 -2.238281 6.300781 -1.410156 5.75 -0.796875 C 5.195312 -0.179688 4.460938 0.125 3.546875 0.125 C 2.617188 0.125 1.878906 -0.179688 1.328125 -0.796875 C 0.773438 -1.410156 0.5 -2.238281 0.5 -3.28125 C 0.5 -4.3125 0.773438 -5.132812 1.328125 -5.75 C 1.878906 -6.375 2.617188 -6.6875 3.546875 -6.6875 Z M 3.546875 -6.6875 "/>
</symbol>
<symbol overflow="visible" id="glyph0-2">
<path style="stroke:none;" d="M 0.890625 -6.5625 L 2.078125 -6.5625 L 4.984375 -1.078125 L 4.984375 -6.5625 L 5.84375 -6.5625 L 5.84375 0 L 4.65625 0 L 1.75 -5.484375 L 1.75 0 L 0.890625 0 Z M 0.890625 -6.5625 "/>
</symbol>
<symbol overflow="visible" id="glyph0-3">
<path style="stroke:none;" d="M 0.890625 -6.5625 L 1.765625 -6.5625 L 1.765625 -3.875 L 5 -3.875 L 5 -6.5625 L 5.890625 -6.5625 L 5.890625 0 L 5 0 L 5 -3.125 L 1.765625 -3.125 L 1.765625 0 L 0.890625 0 Z M 0.890625 -6.5625 "/>
</symbol>
</g>
</defs>
<g id="surface49369">
<rect x="0" y="0" width="300" height="300" style="fill:rgb(100%,100%,100%);fill-opacity:1;stroke:none;"/>
<path style="fill:none;stroke-width:1.2;stroke-linecap:butt;stroke-linejoin:miter;stroke:rgb(0%,0%,0%);stroke-opacity:1;stroke-miterlimit:10;" d="M 216.28125 236.707031 L 220.703125 227.359375 "/>
<path style="fill:none;stroke-width:1.2;stroke-linecap:butt;stroke-linejoin:miter;stroke:rgb(100%,0%,0%);stroke-opacity:1;stroke-miterlimit:10;" d="M 220.703125 227.359375 L 225.121094 218.011719 "/>
<path style="fill:none;stroke-width:1.2;stroke-linecap:butt;stroke-linejoin:miter;stroke:rgb(100%,0%,0%);stroke-opacity:1;stroke-miterlimit:10;" d="M 225.121094 218.011719 L 219.238281 209.511719 "/>
<path style="fill:none;stroke-width:1.2;stroke-linecap:butt;stroke-linejoin:miter;stroke:rgb(0%,0%,0%);stroke-opacity:1;stroke-miterlimit:10;" d="M 219.238281 209.511719 L 213.351562 201.011719 "/>
<path style=" stroke:none;fill-rule:nonzero;fill:rgb(100%,100%,100%);fill-opacity:1;" d="M 221.121094 212.511719 L 229.121094 212.511719 L 229.121094 223.511719 L 221.121094 223.511719 Z M 221.121094 212.511719 "/>
<g style="fill:rgb(100%,0%,0%);fill-opacity:1;">
  <use xlink:href="#glyph0-1" x="221.121094" y="221.174805"/>
</g>
<path style="fill:none;stroke-width:1.2;stroke-linecap:butt;stroke-linejoin:miter;stroke:rgb(0%,0%,0%);stroke-opacity:1;stroke-miterlimit:10;" d="M 213.351562 201.011719 L 192.742188 202.703125 "/>
<path style="fill:none;stroke-width:1.2;stroke-linecap:butt;stroke-linejoin:miter;stroke:rgb(0%,0%,0%);stroke-opacity:1;stroke-miterlimit:10;" d="M 210.894531 196.328125 L 194.40625 197.683594 "/>
<path style="fill:none;stroke-width:1.2;stroke-linecap:butt;stroke-linejoin:miter;stroke:rgb(0%,0%,0%);stroke-opacity:1;stroke-miterlimit:10;" d="M 222.191406 182.316406 L 213.351562 201.011719 "/>
<path style="fill:none;stroke-width:1.2;stroke-linecap:butt;stroke-linejoin:miter;stroke:rgb(0%,0%,0%);stroke-opacity:1;stroke-miterlimit:10;" d="M 192.742188 202.703125 L 180.972656 185.699219 "/>
<path style="fill:none;stroke-width:1.2;stroke-linecap:butt;stroke-linejoin:miter;stroke:rgb(0%,0%,0%);stroke-opacity:1;stroke-miterlimit:10;" d="M 180.972656 185.699219 L 189.8125 167.003906 "/>
<path style="fill:none;stroke-width:1.2;stroke-linecap:butt;stroke-linejoin:miter;stroke:rgb(0%,0%,0%);stroke-opacity:1;stroke-miterlimit:10;" d="M 186.253906 185.910156 L 193.328125 170.953125 "/>
<path style="fill:none;stroke-width:1.2;stroke-linecap:butt;stroke-linejoin:miter;stroke:rgb(0%,0%,0%);stroke-opacity:1;stroke-miterlimit:10;" d="M 189.8125 167.003906 L 210.421875 165.3125 "/>
<path style="fill:none;stroke-width:1.2;stroke-linecap:butt;stroke-linejoin:miter;stroke:rgb(0%,0%,0%);stroke-opacity:1;stroke-miterlimit:10;" d="M 189.8125 167.003906 L 178.042969 150 "/>
<path style="fill:none;stroke-width:1.2;stroke-linecap:butt;stroke-linejoin:miter;stroke:rgb(0%,0%,0%);stroke-opacity:1;stroke-miterlimit:10;" d="M 210.421875 165.3125 L 222.191406 182.316406 "/>
<path style="fill:none;stroke-width:1.2;stroke-linecap:butt;stroke-linejoin:miter;stroke:rgb(0%,0%,0%);stroke-opacity:1;stroke-miterlimit:10;" d="M 207.597656 169.78125 L 217.015625 183.382812 "/>
<path style="fill:none;stroke-width:1.2;stroke-linecap:butt;stroke-linejoin:miter;stroke:rgb(0%,0%,0%);stroke-opacity:1;stroke-miterlimit:10;" d="M 178.042969 150 L 166.273438 132.996094 "/>
<path style="fill:none;stroke-width:1.2;stroke-linecap:butt;stroke-linejoin:miter;stroke:rgb(0%,0%,0%);stroke-opacity:1;stroke-miterlimit:10;" d="M 178.042969 150 L 195.046875 138.230469 "/>
<path style="fill:none;stroke-width:1.2;stroke-linecap:butt;stroke-linejoin:miter;stroke:rgb(0%,0%,0%);stroke-opacity:1;stroke-miterlimit:10;" d="M 178.042969 150 L 169.539062 155.886719 "/>
<path style="fill:none;stroke-width:1.2;stroke-linecap:butt;stroke-linejoin:miter;stroke:rgb(100%,0%,0%);stroke-opacity:1;stroke-miterlimit:10;" d="M 169.539062 155.886719 L 161.039062 161.769531 "/>
<path style="fill:none;stroke-width:1.2;stroke-linecap:butt;stroke-linejoin:miter;stroke:rgb(0%,0%,0%);stroke-opacity:1;stroke-miterlimit:10;" d="M 166.273438 132.996094 L 175.113281 114.300781 "/>
<path style="fill:none;stroke-width:1.2;stroke-linecap:butt;stroke-linejoin:miter;stroke:rgb(0%,0%,0%);stroke-opacity:1;stroke-miterlimit:10;" d="M 162.757812 129.046875 L 169.828125 114.089844 "/>
<path style="fill:none;stroke-width:1.2;stroke-linecap:butt;stroke-linejoin:miter;stroke:rgb(0%,0%,0%);stroke-opacity:1;stroke-miterlimit:10;" d="M 145.660156 134.6875 L 166.273438 132.996094 "/>
<path style="fill:none;stroke-width:1.2;stroke-linecap:butt;stroke-linejoin:miter;stroke:rgb(0%,0%,0%);stroke-opacity:1;stroke-miterlimit:10;" d="M 175.113281 114.300781 L 163.34375 97.296875 "/>
<path style="fill:none;stroke-width:1.2;stroke-linecap:butt;stroke-linejoin:miter;stroke:rgb(0%,0%,0%);stroke-opacity:1;stroke-miterlimit:10;" d="M 163.34375 97.296875 L 142.730469 98.988281 "/>
<path style="fill:none;stroke-width:1.2;stroke-linecap:butt;stroke-linejoin:miter;stroke:rgb(0%,0%,0%);stroke-opacity:1;stroke-miterlimit:10;" d="M 161.679688 102.316406 L 145.191406 103.671875 "/>
<path style="fill:none;stroke-width:1.2;stroke-linecap:butt;stroke-linejoin:miter;stroke:rgb(0%,0%,0%);stroke-opacity:1;stroke-miterlimit:10;" d="M 142.730469 98.988281 L 133.890625 117.683594 "/>
<path style="fill:none;stroke-width:1.2;stroke-linecap:butt;stroke-linejoin:miter;stroke:rgb(0%,0%,0%);stroke-opacity:1;stroke-miterlimit:10;" d="M 142.730469 98.988281 L 136.847656 90.488281 "/>
<path style="fill:none;stroke-width:1.2;stroke-linecap:butt;stroke-linejoin:miter;stroke:rgb(100%,0%,0%);stroke-opacity:1;stroke-miterlimit:10;" d="M 136.847656 90.488281 L 130.960938 81.988281 "/>
<path style="fill:none;stroke-width:1.2;stroke-linecap:butt;stroke-linejoin:miter;stroke:rgb(0%,0%,0%);stroke-opacity:1;stroke-miterlimit:10;" d="M 133.890625 117.683594 L 145.660156 134.6875 "/>
<path style="fill:none;stroke-width:1.2;stroke-linecap:butt;stroke-linejoin:miter;stroke:rgb(0%,0%,0%);stroke-opacity:1;stroke-miterlimit:10;" d="M 139.070312 116.617188 L 148.484375 130.21875 "/>
<path style="fill:none;stroke-width:1.2;stroke-linecap:butt;stroke-linejoin:miter;stroke:rgb(100%,0%,0%);stroke-opacity:1;stroke-miterlimit:10;" d="M 130.960938 81.988281 L 135.382812 72.640625 "/>
<path style="fill:none;stroke-width:1.2;stroke-linecap:butt;stroke-linejoin:miter;stroke:rgb(0%,0%,0%);stroke-opacity:1;stroke-miterlimit:10;" d="M 135.382812 72.640625 L 139.800781 63.292969 "/>
<path style=" stroke:none;fill-rule:nonzero;fill:rgb(100%,100%,100%);fill-opacity:1;" d="M 126.960938 76.488281 L 134.960938 76.488281 L 134.960938 87.488281 L 126.960938 87.488281 Z M 126.960938 76.488281 "/>
<g style="fill:rgb(100%,0%,0%);fill-opacity:1;">
  <use xlink:href="#glyph0-1" x="126.960938" y="85.151367"/>
</g>
<path style="fill:none;stroke-width:1.2;stroke-linecap:butt;stroke-linejoin:miter;stroke:rgb(0%,0%,0%);stroke-opacity:1;stroke-miterlimit:10;" d="M 195.046875 138.230469 L 213.738281 147.070312 "/>
<path style="fill:none;stroke-width:1.2;stroke-linecap:butt;stroke-linejoin:miter;stroke:rgb(0%,0%,0%);stroke-opacity:1;stroke-miterlimit:10;" d="M 198.996094 134.714844 L 213.949219 141.789062 "/>
<path style="fill:none;stroke-width:1.2;stroke-linecap:butt;stroke-linejoin:miter;stroke:rgb(0%,0%,0%);stroke-opacity:1;stroke-miterlimit:10;" d="M 193.355469 117.621094 L 195.046875 138.230469 "/>
<path style="fill:none;stroke-width:1.2;stroke-linecap:butt;stroke-linejoin:miter;stroke:rgb(0%,0%,0%);stroke-opacity:1;stroke-miterlimit:10;" d="M 213.738281 147.070312 L 230.742188 135.300781 "/>
<path style="fill:none;stroke-width:1.2;stroke-linecap:butt;stroke-linejoin:miter;stroke:rgb(0%,0%,0%);stroke-opacity:1;stroke-miterlimit:10;" d="M 230.742188 135.300781 L 229.050781 114.691406 "/>
<path style="fill:none;stroke-width:1.2;stroke-linecap:butt;stroke-linejoin:miter;stroke:rgb(0%,0%,0%);stroke-opacity:1;stroke-miterlimit:10;" d="M 225.726562 133.636719 L 224.371094 117.148438 "/>
<path style="fill:none;stroke-width:1.2;stroke-linecap:butt;stroke-linejoin:miter;stroke:rgb(0%,0%,0%);stroke-opacity:1;stroke-miterlimit:10;" d="M 229.050781 114.691406 L 210.355469 105.851562 "/>
<path style="fill:none;stroke-width:1.2;stroke-linecap:butt;stroke-linejoin:miter;stroke:rgb(0%,0%,0%);stroke-opacity:1;stroke-miterlimit:10;" d="M 229.050781 114.691406 L 237.554688 108.804688 "/>
<path style="fill:none;stroke-width:1.2;stroke-linecap:butt;stroke-linejoin:miter;stroke:rgb(100%,0%,0%);stroke-opacity:1;stroke-miterlimit:10;" d="M 237.554688 108.804688 L 246.054688 102.921875 "/>
<path style="fill:none;stroke-width:1.2;stroke-linecap:butt;stroke-linejoin:miter;stroke:rgb(0%,0%,0%);stroke-opacity:1;stroke-miterlimit:10;" d="M 210.355469 105.851562 L 193.355469 117.621094 "/>
<path style="fill:none;stroke-width:1.2;stroke-linecap:butt;stroke-linejoin:miter;stroke:rgb(0%,0%,0%);stroke-opacity:1;stroke-miterlimit:10;" d="M 211.425781 111.027344 L 197.824219 120.445312 "/>
<path style="fill:none;stroke-width:1.2;stroke-linecap:butt;stroke-linejoin:miter;stroke:rgb(100%,0%,0%);stroke-opacity:1;stroke-miterlimit:10;" d="M 246.054688 102.921875 L 255.402344 107.339844 "/>
<path style="fill:none;stroke-width:1.2;stroke-linecap:butt;stroke-linejoin:miter;stroke:rgb(0%,0%,0%);stroke-opacity:1;stroke-miterlimit:10;" d="M 255.402344 107.339844 L 264.75 111.761719 "/>
<path style=" stroke:none;fill-rule:nonzero;fill:rgb(100%,100%,100%);fill-opacity:1;" d="M 242.054688 97.421875 L 250.054688 97.421875 L 250.054688 108.421875 L 242.054688 108.421875 Z M 242.054688 97.421875 "/>
<g style="fill:rgb(100%,0%,0%);fill-opacity:1;">
  <use xlink:href="#glyph0-1" x="242.054688" y="106.084961"/>
</g>
<path style="fill:none;stroke-width:1.2;stroke-linecap:butt;stroke-linejoin:miter;stroke:rgb(100%,0%,0%);stroke-opacity:1;stroke-miterlimit:10;" d="M 161.039062 161.769531 L 151.691406 157.351562 "/>
<path style="fill:none;stroke-width:1.2;stroke-linecap:butt;stroke-linejoin:miter;stroke:rgb(0%,0%,0%);stroke-opacity:1;stroke-miterlimit:10;" d="M 151.691406 157.351562 L 142.34375 152.929688 "/>
<path style=" stroke:none;fill-rule:nonzero;fill:rgb(100%,100%,100%);fill-opacity:1;" d="M 157.039062 156.269531 L 165.039062 156.269531 L 165.039062 167.269531 L 157.039062 167.269531 Z M 157.039062 156.269531 "/>
<g style="fill:rgb(100%,0%,0%);fill-opacity:1;">
  <use xlink:href="#glyph0-1" x="157.039062" y="164.932617"/>
</g>
<path style="fill:none;stroke-width:1.2;stroke-linecap:butt;stroke-linejoin:miter;stroke:rgb(0%,0%,0%);stroke-opacity:1;stroke-miterlimit:10;" d="M 142.34375 152.929688 L 125.339844 164.699219 "/>
<path style="fill:none;stroke-width:1.2;stroke-linecap:butt;stroke-linejoin:miter;stroke:rgb(0%,0%,0%);stroke-opacity:1;stroke-miterlimit:10;" d="M 125.339844 164.699219 L 115.992188 160.28125 "/>
<path style="fill:none;stroke-width:1.2;stroke-linecap:butt;stroke-linejoin:miter;stroke:rgb(0%,0%,100%);stroke-opacity:1;stroke-miterlimit:10;" d="M 115.992188 160.28125 L 106.644531 155.859375 "/>
<path style="fill:none;stroke-width:1.2;stroke-linecap:butt;stroke-linejoin:miter;stroke:rgb(0%,0%,100%);stroke-opacity:1;stroke-miterlimit:10;" d="M 106.644531 155.859375 L 105.800781 145.554688 "/>
<path style="fill:none;stroke-width:1.2;stroke-linecap:butt;stroke-linejoin:miter;stroke:rgb(0%,0%,0%);stroke-opacity:1;stroke-miterlimit:10;" d="M 105.800781 145.554688 L 104.953125 135.25 "/>
<path style="fill:none;stroke-width:1.2;stroke-linecap:butt;stroke-linejoin:miter;stroke:rgb(0%,0%,0%);stroke-opacity:1;stroke-miterlimit:10;" d="M 89.644531 167.628906 L 98.144531 161.746094 "/>
<path style="fill:none;stroke-width:1.2;stroke-linecap:butt;stroke-linejoin:miter;stroke:rgb(0%,0%,100%);stroke-opacity:1;stroke-miterlimit:10;" d="M 98.144531 161.746094 L 106.644531 155.859375 "/>
<path style=" stroke:none;fill-rule:nonzero;fill:rgb(100%,100%,100%);fill-opacity:1;" d="M 103.644531 150.359375 L 110.644531 150.359375 L 110.644531 161.359375 L 103.644531 161.359375 Z M 103.644531 150.359375 "/>
<g style="fill:rgb(0%,0%,100%);fill-opacity:1;">
  <use xlink:href="#glyph0-2" x="103.644531" y="159.022461"/>
</g>
<path style="fill:none;stroke-width:1.2;stroke-linecap:butt;stroke-linejoin:miter;stroke:rgb(0%,0%,0%);stroke-opacity:1;stroke-miterlimit:10;" d="M 104.953125 135.25 L 86.261719 126.410156 "/>
<path style="fill:none;stroke-width:1.2;stroke-linecap:butt;stroke-linejoin:miter;stroke:rgb(0%,0%,0%);stroke-opacity:1;stroke-miterlimit:10;" d="M 86.261719 126.410156 L 69.257812 138.179688 "/>
<path style="fill:none;stroke-width:1.2;stroke-linecap:butt;stroke-linejoin:miter;stroke:rgb(0%,0%,0%);stroke-opacity:1;stroke-miterlimit:10;" d="M 69.257812 138.179688 L 70.949219 158.789062 "/>
<path style="fill:none;stroke-width:1.2;stroke-linecap:butt;stroke-linejoin:miter;stroke:rgb(0%,0%,0%);stroke-opacity:1;stroke-miterlimit:10;" d="M 70.949219 158.789062 L 89.644531 167.628906 "/>
<path style="fill:none;stroke-width:1;stroke-linecap:butt;stroke-linejoin:miter;stroke:rgb(0%,0%,0%);stroke-opacity:1;stroke-miterlimit:10;" d="M 70.949219 158.789062 L 70.949219 158.789062 M 68.222656 160.042969 L 68.816406 160.898438 M 65.496094 161.292969 L 66.683594 163.007812 M 62.769531 162.546875 L 64.550781 165.121094 M 60.042969 163.800781 L 62.417969 167.230469 M 57.320312 165.054688 L 60.285156 169.339844 M 54.59375 166.304688 L 58.152344 171.449219 M 51.867188 167.558594 L 56.023438 173.558594 "/>
<path style="fill:none;stroke-width:1.2;stroke-linecap:butt;stroke-linejoin:miter;stroke:rgb(0%,0%,0%);stroke-opacity:1;stroke-miterlimit:10;" d="M 51.519531 170.757812 L 52.367188 181.0625 "/>
<path style="fill:none;stroke-width:1.2;stroke-linecap:butt;stroke-linejoin:miter;stroke:rgb(100%,0%,0%);stroke-opacity:1;stroke-miterlimit:10;" d="M 52.367188 181.0625 L 53.210938 191.367188 "/>
<path style="fill:none;stroke-width:1.2;stroke-linecap:butt;stroke-linejoin:miter;stroke:rgb(0%,0%,0%);stroke-opacity:1;stroke-miterlimit:10;" d="M 56.371094 170.359375 L 57.214844 180.664062 "/>
<path style="fill:none;stroke-width:1.2;stroke-linecap:butt;stroke-linejoin:miter;stroke:rgb(100%,0%,0%);stroke-opacity:1;stroke-miterlimit:10;" d="M 57.214844 180.664062 L 58.0625 190.96875 "/>
<path style="fill:none;stroke-width:1.2;stroke-linecap:butt;stroke-linejoin:miter;stroke:rgb(0%,0%,0%);stroke-opacity:1;stroke-miterlimit:10;" d="M 53.945312 170.558594 L 44.597656 166.136719 "/>
<path style="fill:none;stroke-width:1.2;stroke-linecap:butt;stroke-linejoin:miter;stroke:rgb(100%,0%,0%);stroke-opacity:1;stroke-miterlimit:10;" d="M 44.597656 166.136719 L 35.25 161.71875 "/>
<path style=" stroke:none;fill-rule:nonzero;fill:rgb(100%,100%,100%);fill-opacity:1;" d="M 51.636719 185.667969 L 59.636719 185.667969 L 59.636719 196.667969 L 51.636719 196.667969 Z M 51.636719 185.667969 "/>
<g style="fill:rgb(100%,0%,0%);fill-opacity:1;">
  <use xlink:href="#glyph0-1" x="51.636719" y="194.331055"/>
</g>
<path style=" stroke:none;fill-rule:nonzero;fill:rgb(100%,100%,100%);fill-opacity:1;" d="M 20.25 156.21875 L 35.25 156.21875 L 35.25 167.21875 L 20.25 167.21875 Z M 20.25 156.21875 "/>
<g style="fill:rgb(100%,0%,0%);fill-opacity:1;">
  <use xlink:href="#glyph0-3" x="20.25" y="164.881836"/>
  <use xlink:href="#glyph0-1" x="27.264648" y="164.881836"/>
</g>
</g>
</svg>

<svg xmlns="http://www.w3.org/2000/svg" xmlns:xlink="http://www.w3.org/1999/xlink" width="300pt" height="300pt" viewBox="0 0 300 300"><defs><symbol overflow="visible"><path d="M.453 1.594v-7.938h4.5v7.938zm.5-.5h3.5v-6.938h-3.5zm0 0"/></symbol><symbol overflow="visible" id="a"><path d="M3.547-5.953c-.65 0-1.164.242-1.547.72-.375.48-.563 1.13-.563 1.952 0 .835.188 1.49.563 1.967.383.48.898.72 1.547.72.644 0 1.156-.24 1.53-.72.376-.476.564-1.132.564-1.968 0-.822-.187-1.474-.562-1.954-.375-.477-.887-.72-1.53-.72zm0-.734c.914 0 1.648.312 2.203.937.55.617.828 1.438.828 2.47 0 1.042-.277 1.87-.828 2.483-.555.617-1.29.922-2.203.922-.93 0-1.668-.305-2.22-.922C.774-1.41.5-2.237.5-3.28c0-1.033.273-1.853.828-2.47.55-.625 1.29-.938 2.22-.938zm0 0"/></symbol><symbol overflow="visible" id="b"><path d="M.89-6.563H2.08l2.906 5.485v-5.484h.86V0H4.656L1.75-5.484V0H.89zm0 0"/></symbol><symbol overflow="visible" id="c"><path d="M.89-6.563h.876v2.688H5v-2.688h.89V0H5v-3.125H1.766V0H.89zm0 0"/></symbol></defs><g><path fill="#fff" d="M0 0h300v300H0z"/><path d="M216.28 236.707l4.423-9.348" stroke-width="1.2" stroke="#000" stroke-miterlimit="10" fill="none"/><path d="M220.703 227.36l4.418-9.348M225.12 218.012l-5.882-8.5" stroke-width="1.2" stroke="#f00" stroke-miterlimit="10" fill="none"/><path d="M219.238 209.512l-5.886-8.5" stroke-width="1.2" stroke="#000" stroke-miterlimit="10" fill="none"/><path d="M221.12 212.512h8v11h-8zm0 0" fill="#fff"/><use xlink:href="#a" x="221.121" y="221.175" fill="#f00"/><path d="M213.352 201.012l-20.61 1.69M210.895 196.328l-16.49 1.356M222.19 182.316l-8.838 18.696M192.742 202.703l-11.77-17.004M180.973 185.7l8.84-18.696M186.254 185.91l7.074-14.957M189.813 167.004l20.61-1.69M189.813 167.004L178.042 150M210.422 165.313l11.77 17.003M207.598 169.78l9.418 13.603M178.043 150l-11.77-17.004M178.043 150l17.004-11.77M178.043 150l-8.504 5.887" stroke-width="1.2" stroke="#000" stroke-miterlimit="10" fill="none"/><path d="M169.54 155.887l-8.5 5.883" stroke-width="1.2" stroke="#f00" stroke-miterlimit="10" fill="none"/><path d="M166.273 132.996l8.84-18.695M162.758 129.047l7.07-14.957M145.66 134.688l20.613-1.692M175.113 114.3l-11.77-17.003M163.344 97.297l-20.614 1.69M161.68 102.316l-16.49 1.356M142.73 98.988l-8.84 18.696M142.73 98.988l-5.882-8.5" stroke-width="1.2" stroke="#000" stroke-miterlimit="10" fill="none"/><path d="M136.848 90.488l-5.887-8.5" stroke-width="1.2" stroke="#f00" stroke-miterlimit="10" fill="none"/><path d="M133.89 117.684l11.77 17.004M139.07 116.617l9.414 13.602" stroke-width="1.2" stroke="#000" stroke-miterlimit="10" fill="none"/><path d="M130.96 81.988l4.423-9.347" stroke-width="1.2" stroke="#f00" stroke-miterlimit="10" fill="none"/><path d="M135.383 72.64l4.418-9.347" stroke-width="1.2" stroke="#000" stroke-miterlimit="10" fill="none"/><path d="M126.96 76.488h8v11h-8zm0 0" fill="#fff"/><use xlink:href="#a" x="126.961" y="85.151" fill="#f00"/><path d="M195.047 138.23l18.69 8.84M198.996 134.715l14.953 7.074M193.355 117.62l1.692 20.61M213.738 147.07l17.004-11.77M230.742 135.3l-1.69-20.61M225.727 133.637l-1.356-16.49M229.05 114.69l-18.695-8.838M229.05 114.69l8.505-5.885" stroke-width="1.2" stroke="#000" stroke-miterlimit="10" fill="none"/><path d="M237.555 108.805l8.5-5.883" stroke-width="1.2" stroke="#f00" stroke-miterlimit="10" fill="none"/><path d="M210.355 105.852l-17 11.77M211.426 111.027l-13.602 9.418" stroke-width="1.2" stroke="#000" stroke-miterlimit="10" fill="none"/><path d="M246.055 102.922l9.347 4.418" stroke-width="1.2" stroke="#f00" stroke-miterlimit="10" fill="none"/><path d="M255.402 107.34l9.348 4.422" stroke-width="1.2" stroke="#000" stroke-miterlimit="10" fill="none"/><path d="M242.055 97.422h8v11h-8zm0 0" fill="#fff"/><use xlink:href="#a" x="242.055" y="106.085" fill="#f00"/><path d="M161.04 161.77l-9.35-4.418" stroke-width="1.2" stroke="#f00" stroke-miterlimit="10" fill="none"/><path d="M151.69 157.352l-9.346-4.422" stroke-width="1.2" stroke="#000" stroke-miterlimit="10" fill="none"/><path d="M157.04 156.27h8v11h-8zm0 0" fill="#fff"/><use xlink:href="#a" x="157.039" y="164.933" fill="#f00"/><path d="M142.344 152.93L125.34 164.7M125.34 164.7l-9.348-4.42" stroke-width="1.2" stroke="#000" stroke-miterlimit="10" fill="none"/><path d="M115.992 160.28l-9.347-4.42M106.645 155.86l-.844-10.305" stroke-width="1.2" stroke="#00f" stroke-miterlimit="10" fill="none"/><path d="M105.8 145.555l-.847-10.305M89.645 167.63l8.5-5.884" stroke-width="1.2" stroke="#000" stroke-miterlimit="10" fill="none"/><path d="M98.145 161.746l8.5-5.887" stroke-width="1.2" stroke="#00f" stroke-miterlimit="10" fill="none"/><path d="M103.645 150.36h7v11h-7zm0 0" fill="#fff"/><use xlink:href="#b" x="103.645" y="159.022" fill="#00f"/><path d="M104.953 135.25l-18.69-8.84M86.262 126.41l-17.004 11.77M69.258 138.18l1.69 20.61M70.95 158.79l18.695 8.84" stroke-width="1.2" stroke="#000" stroke-miterlimit="10" fill="none"/><path d="M70.95 158.79m-2.727 1.253l.593.855m-3.32.395l1.188 1.715m-3.914-.46l1.78 2.573m-4.507-1.32l2.375 3.43m-5.098-2.175l2.965 4.285m-5.69-3.035l3.557 5.144m-6.285-3.89l4.156 6" stroke="#000" stroke-miterlimit="10" fill="none"/><path d="M51.52 170.758l.847 10.304" stroke-width="1.2" stroke="#000" stroke-miterlimit="10" fill="none"/><path d="M52.367 181.063l.844 10.304" stroke-width="1.2" stroke="#f00" stroke-miterlimit="10" fill="none"/><path d="M56.37 170.36l.845 10.304" stroke-width="1.2" stroke="#000" stroke-miterlimit="10" fill="none"/><path d="M57.215 180.664l.847 10.305" stroke-width="1.2" stroke="#f00" stroke-miterlimit="10" fill="none"/><path d="M53.945 170.56l-9.347-4.423" stroke-width="1.2" stroke="#000" stroke-miterlimit="10" fill="none"/><path d="M44.598 166.137l-9.348-4.418" stroke-width="1.2" stroke="#f00" stroke-miterlimit="10" fill="none"/><path d="M51.637 185.668h8v11h-8zm0 0" fill="#fff"/><use xlink:href="#a" x="51.637" y="194.331" fill="#f00"/><path d="M20.25 156.22h15v11h-15zm0 0" fill="#fff"/><g fill="#f00"><use xlink:href="#c" x="20.25" y="164.882"/><use xlink:href="#a" x="27.265" y="164.882"/></g></g></svg>
